X:182
T:Money Musk
O:No 181 William Clarke of Feltwell
M:4/4
L:1/8
N:In m.s. Bar B2 is |gdcg B>gA>g|
K:G
e|d>GB>G d>GB>e|d>GB>G AB/A/ c>e|d>GB>G B>cd>g|e>cA>d B>GG::e/f/|g>dB.g d>gB>g|g>dc>g B>gA>g|f>de>g d>gB>g|e>cA>d BGG e/f/|g>dB>g d>gB>g|g>dc>g B>gA>g|g>de>g d>gc>g|B>gA>g BGG:|

